X:1
T:America (my Country, 'Tis of Thee
T:Public Domain (1917)
T:America (my Country, 'Tis of Thee
T:Public Domain (1917)
Z:Public Domain (1917)
%%score { 1 | 2 }
L:1/8
Q:1/4=100
M:6/8
K:Eb
V:1 treble nm="Piano" snm="Piano"
V:2 bass 
V:1
 z3 z z B |[M:3/4] B3 B- Bc | B2 GE- EC | B,3 B, EG | B3 c- c2 | B3 B FG | A3 c- c2 | B3 B EF | %8
w: Of|all * * the|wives as e'er * you|know,....... * * *|* Yeo- *|ho! * lads! *|ho! Yeo- *|hoe! * Yeo- *|
 G2 z2 z B | B3 B- Bc | B2 GE- EC | B,3 B, EG | B3 e- e2 | d3 d G=A | B3 B =AB | G3 z z2 | z4 z G | %17
w: ho! There's|none * * like|Nan- cy Lee, * I|trow,........ * * *|* Yeo- *|ho! * Yeo- *|ho! * Yeo- *|ho!|See|
 A2 AB- BB | c2 cd- dd | B3 B- BG | B3 z z G | B2 B=A- AA | A2 AF- FF | c3 c B=A | B3 z z B | %25
w: there she stands * an'|waves her hand * up-|on * * the|quay, An'|ev- 'ry day * when|I'm a- way * she'll|watch * for *|me, An'|
 B2 Bc- cc | d2 de- ec | B3 B- BG | B3 c- c2 | d3 d BG | F3 F EC | z6 | z2 z B- B2 | e3 e- eB | %34
w: whis per low * when|temp ests blow, * for|Jack * * at|sea; Yeo- *|ho! * lads! *|ho! * Yeo- *||The *|sail- * * lor's|
 e2 Bd- dc | B3 B- BG | E3 c- c2 | B3 B FG | A3 c- c2 | B3 B EF | G3 G- GB | e3 e- eB | e2 Bd- dc | %43
w: wife the sail- * ors|star * * shall|be Yeo- *|ho! * we *|go a- *|cross * the *|sea; * * The|sail- * * or's|wife the sail- * or's|
 B3 B- BG | E3 G- G2 | A2 GA- AB | c3 d- d2 | e6 | e2- e/ z/ z z2 |] %49
w: star * * shall|be, The *|sail- or's wife * his|star shall *|be.||
V:2
 z6 |[M:3/4] z6 | z6 | z6 | z6 | z6 | z6 | z6 | z6 | z6 | z6 | z6 | z6 | z6 | z6 | z6 | z6 | z6 | %18
 z6 | z6 | z6 | z6 | z6 | z6 | z6 | z6 | z6 | z6 | z6 | z6 | z6 | B,3 z z2 | z6 | z6 | z6 | z6 | %36
 z6 | z6 | z6 | z6 | z6 | z6 | z6 | z6 | z6 | z6 | z6 | z6 | z6 |] %49

